images/UpgradeGraphics/BCHUpgrades_Icons/18.svg

<svg xmlns="http://www.w3.org/2000/svg" fill="none" viewBox="0.1 41.53 502.12 560.97" xmlns:v="https://vecta.io/nano"><path transform="matrix(.892836 -.450382 .892836 .450382 45.6484 245.528)" fill="url(#A)" d="M0 0h230.186v230.186H0z"/><path transform="matrix(.892836 .450382 0 1 45.6484 245.254)" fill="url(#B)" d="M0 0h230.186v207.343H0z"/><path transform="matrix(.892836 -.450382 0 1 251.023 349.473)" fill="url(#B)" d="M0 0h230.186v207.343H0z"/><path d="M55.5 73.499l189 35.001 8.371 193.047-156.558-78.659L55.5 73.499z" fill="url(#C)" style="mix-blend-mode:screen"/><path transform="matrix(.893435 -.449193 .893435 .449193 .101562 223.487)" fill="url(#D)" d="M0 0h281.008v281.008H0z"/><path transform="matrix(.893435 .449193 0 1 .101562 223.154)" fill="url(#E)" d="M0 0h281.008v252.453H0z"/><path transform="matrix(.893435 -.449193 0 1 250.992 350.047)" fill="url(#F)" d="M0 0h281.008v252.453H0z"/><path transform="matrix(.886918 -.461928 .886918 .461928 77.6904 227.135)" stroke="#fff" stroke-width="10" d="M8.869 0h182.23v188.652H8.869z"/><path fill="#a2ffe5" d="M92.891 224.128l157.965-82.272 158.78 82.697-157.965 82.272z" style="mix-blend-mode:screen"/><g fill="#fff"><path d="M125.692 437.593c-5.138-2.834-9.633-6.18-13.485-10.038-3.853-3.925-6.86-8.083-9.02-12.474-2.159-4.458-3.239-8.854-3.239-13.187s1.05-7.421 3.152-9.262c2.16-1.875 5.166-2.517 9.019-1.925 3.853.525 8.377 2.22 13.573 5.086 5.253 2.897 9.807 6.209 13.66 9.934 3.911 3.69 6.917 7.648 9.019 11.874 2.16 4.191 3.24 8.454 3.24 12.787s-1.08 7.538-3.24 9.613c-2.16 2.009-5.196 2.835-9.107 2.477-3.853-.391-8.377-2.02-13.572-4.885zm0-11.9c3.561 1.964 6.363 2.609 8.406 1.936 2.101-.641 3.152-2.528 3.152-5.661s-1.051-6.147-3.152-9.039c-2.043-2.927-4.845-5.372-8.406-7.336-3.503-1.932-6.276-2.562-8.319-1.888-2.043.606-3.065 2.476-3.065 5.609s1.022 6.164 3.065 9.091 4.816 5.356 8.319 7.288zm0-21.7c-4.729-2.608-8.874-5.628-12.435-9.058-3.502-3.399-6.246-7.045-8.231-10.94-1.926-3.929-2.889-7.861-2.889-11.794 0-4.133.992-7.119 2.977-8.958 1.985-1.905 4.758-2.676 8.319-2.312 3.56.298 7.647 1.718 12.259 4.262 4.728 2.608 8.844 5.711 12.346 9.309 3.561 3.564 6.334 7.394 8.319 11.488 2.043 4.061 3.065 8.157 3.065 12.291 0 3.933-.993 6.786-2.978 8.558-1.926 1.737-4.67 2.357-8.231 1.86s-7.735-2.066-12.521-4.706zm0-9.5c2.977 1.642 5.312 2.163 7.005 1.563 1.751-.567 2.627-2.184 2.627-4.851 0-2.8-.905-5.466-2.715-7.997-1.751-2.499-4.057-4.538-6.917-6.115-2.803-1.546-5.079-2.035-6.83-1.467s-2.627 2.251-2.627 5.051c0 2.666.846 5.233 2.539 7.7s3.999 4.506 6.918 6.116zm174.295 78.524v-70l11.733-6.472 26.094 35.008-6.217 3.429 25.657-63.55 11.646-6.424.175 69.904-13.31 7.341-.087-46.652 2.451-1.352-20.49 50.601-6.392 3.525-20.928-27.757 2.977-1.642v46.7l-13.309 7.341zm83.631-46.126v-70l29.947-16.517c7.705-4.25 13.485-5.771 17.337-4.563 3.912 1.176 5.867 4.498 5.867 9.965 0 3.666-.788 7.301-2.364 10.904-1.576 3.536-3.736 6.793-6.48 9.773s-5.896 5.452-9.457 7.416l1.664-5.017c3.853-2.125 7.268-3.275 10.245-3.451 2.977-.242 5.283.586 6.918 2.485 1.693 1.866 2.539 4.833 2.539 8.899 0 6-2.072 11.843-6.217 17.529-4.145 5.62-10.245 10.651-18.301 15.094l-31.698 17.483zm14.097-19.976l16.55-9.128c3.678-2.028 6.451-4.224 8.319-6.588 1.926-2.462 2.889-5.193 2.889-8.193 0-2.934-.963-4.569-2.889-4.907-1.868-.436-4.641.36-8.319 2.388l-17.6 9.708v-11.8l15.148-8.355c3.445-1.9 6.071-4.015 7.881-6.347 1.868-2.43 2.802-5.045 2.802-7.845 0-2.734-.934-4.252-2.802-4.555-1.81-.402-4.436.347-7.881 2.247l-14.098 7.775v45.6z"/><path d="M333.273 78.722l37.872-20.888 14.667 8.09-37.871 20.888-14.668-8.09zm-29.115-16.058l37.872-20.888 14.667 8.09-37.872 20.888-14.667-8.089zM171.279 168.068l37.872-20.888 14.667 8.09-37.872 20.888-14.667-8.09zm-29.115-16.058l37.872-20.888 14.667 8.09-37.872 20.887-14.667-8.089zm-1.095-24.268l156.303-86.208 37.653 20.767c12.551 6.922 21.672 13.402 27.364 19.439 5.983 6.037 8.172 11.832 6.567 17.386-1.313 5.554-6.859 11.028-16.637 16.421-5.838 3.22-11.894 5.755-18.17 7.606s-12.332 2.858-18.17 3.019-11.164-.604-15.98-2.294l-1.095.604c3.211 2.897 5.181 5.996 5.911 9.296s-.365 6.883-3.284 10.746-8.464 8.049-16.637 12.557c-9.486 5.232-19.702 8.613-30.648 10.142-10.799 1.449-21.891 1.046-33.274-1.207-11.092-2.254-21.891-6.279-32.399-12.074l-47.504-26.2zm135.725-29.219c7.297 4.024 13.865 5.956 19.702 5.795s11.676-1.851 17.513-5.071c5.984-3.3 8.611-6.6 7.881-9.901s-4.743-6.963-12.04-10.987l-6.567-3.622-34.807 19.198 8.318 4.588zm-34.588 9.9l-40.717 22.458 10.726 5.916c7.589 4.186 14.741 6.037 21.454 5.554 7.005-.483 13.718-2.495 20.14-6.037 3.94-2.173 6.713-4.427 8.318-6.761s1.606-4.83 0-7.486c-1.459-2.576-4.889-5.353-10.289-8.331l-9.632-5.313z" style="mix-blend-mode:screen"/></g><path d="M235.789 125.408L443 62l-40.405 162.522-149.727 81.351-17.079-180.465z" fill="url(#G)" style="mix-blend-mode:screen"/><defs><linearGradient id="A" x1="115.093" y1="0" x2="115.093" y2="230.186" href="#H"><stop stop-color="#13edb1"/><stop offset="1" stop-color="#13b3d3"/></linearGradient><linearGradient id="B" x1="115.093" y1="0" x2="115.093" y2="207.343" href="#H"><stop stop-color="#13edb1"/><stop offset="1" stop-color="#13b3d3"/></linearGradient><linearGradient id="C" x1="237.448" y1="113.759" x2="180.682" y2="259.262" href="#H"><stop offset=".148" stop-color="#93e0cb" stop-opacity="0"/><stop offset=".693" stop-color="#7fe2c7" stop-opacity=".157"/><stop offset="1" stop-color="#13edb1" stop-opacity=".76"/></linearGradient><linearGradient id="D" x1="140.504" y1="0" x2="140.504" y2="281.008" href="#H"><stop stop-color="#13edb1" stop-opacity=".32"/><stop offset="1" stop-color="#13b3d3" stop-opacity=".51"/></linearGradient><linearGradient id="E" x1="140.504" y1="0" x2="140.504" y2="252.453" href="#H"><stop stop-color="#13edb1" stop-opacity=".54"/><stop offset="1" stop-color="#13b3d3" stop-opacity=".54"/></linearGradient><linearGradient id="F" x1="140.504" y1="0" x2="140.504" y2="252.453" href="#H"><stop stop-color="#13edb1" stop-opacity=".58"/><stop offset="1" stop-color="#13b3d3" stop-opacity=".7"/></linearGradient><linearGradient id="G" x1="358.325" y1="78.177" x2="412.785" y2="244.11" href="#H"><stop offset=".148" stop-color="#93e0cb" stop-opacity="0"/><stop offset=".693" stop-color="#7fe2c7" stop-opacity=".157"/><stop offset="1" stop-color="#13edb1" stop-opacity=".76"/></linearGradient><linearGradient id="H" gradientUnits="userSpaceOnUse"/></defs></svg>

<svg xmlns="http://www.w3.org/2000/svg" fill="none" viewBox="0.1 41.53 502.12 560.97">
<g id="Group 128">
<g id="Group 27">
<rect id="Rectangle 144" width="230.186" height="230.186" transform="matrix(0.892836 -0.450382 0.892836 0.450382 45.6484 245.528)" fill="url(#paint0_linear_154_48)"/>
<rect id="Rectangle 145" width="230.186" height="207.343" transform="matrix(0.892836 0.450382 0 1 45.6484 245.254)" fill="url(#paint1_linear_154_48)"/>
<rect id="Rectangle 146" width="230.186" height="207.343" transform="matrix(0.892836 -0.450382 0 1 251.023 349.473)" fill="url(#paint2_linear_154_48)"/>
</g>
<g id="Rectangle 140" style="mix-blend-mode:screen">
<path d="M55.5 73.4993L244.5 108.5L252.871 301.547L96.3125 222.888L55.5 73.4993Z" fill="url(#paint3_linear_154_48)"/>
</g>
<rect id="Rectangle 144_2" width="281.008" height="281.008" transform="matrix(0.893435 -0.449193 0.893435 0.449193 0.101562 223.487)" fill="url(#paint4_linear_154_48)"/>
<rect id="Rectangle 145_2" width="281.008" height="252.453" transform="matrix(0.893435 0.449193 0 1 0.101562 223.154)" fill="url(#paint5_linear_154_48)"/>
<rect id="Rectangle 146_2" width="281.008" height="252.453" transform="matrix(0.893435 -0.449193 0 1 250.992 350.047)" fill="url(#paint6_linear_154_48)"/>
<rect id="Rectangle 147" x="8.86918" width="182.23" height="188.652" transform="matrix(0.886918 -0.461928 0.886918 0.461928 77.6904 227.135)" stroke="white" stroke-width="10"/>
<g id="Rectangle 148" style="mix-blend-mode:screen">
<rect width="178.105" height="179.025" transform="matrix(0.886918 -0.461928 0.886918 0.461928 92.8906 224.128)" fill="#A2FFE5"/>
</g>
<g id="8" filter="url(#filter0_d_154_48)">
<path d="M125.692 437.593C120.554 434.759 116.059 431.413 112.207 427.555C108.354 423.63 105.347 419.472 103.187 415.081C101.028 410.623 99.9476 406.227 99.9476 401.894C99.9476 397.56 100.998 394.473 103.1 392.632C105.26 390.757 108.266 390.115 112.119 390.707C115.972 391.232 120.496 392.927 125.692 395.793C130.945 398.69 135.499 402.002 139.352 405.727C143.263 409.417 146.269 413.375 148.371 417.601C150.531 421.792 151.611 426.055 151.611 430.388C151.611 434.721 150.531 437.926 148.371 440.001C146.211 442.01 143.175 442.836 139.264 442.478C135.411 442.087 130.887 440.458 125.692 437.593ZM125.692 425.693C129.253 427.657 132.055 428.302 134.098 427.629C136.199 426.988 137.25 425.101 137.25 421.968C137.25 418.834 136.199 415.821 134.098 412.929C132.055 410.002 129.253 407.557 125.692 405.593C122.189 403.661 119.416 403.031 117.373 403.705C115.33 404.311 114.308 406.181 114.308 409.314C114.308 412.448 115.33 415.478 117.373 418.405C119.416 421.331 122.189 423.761 125.692 425.693ZM125.692 403.993C120.963 401.385 116.818 398.365 113.257 394.935C109.755 391.536 107.011 387.89 105.026 383.995C103.1 380.066 102.137 376.134 102.137 372.201C102.137 368.068 103.129 365.082 105.114 363.243C107.099 361.338 109.872 360.567 113.433 360.931C116.993 361.229 121.08 362.649 125.692 365.193C130.42 367.801 134.536 370.904 138.038 374.502C141.599 378.066 144.372 381.896 146.357 385.99C148.4 390.051 149.422 394.147 149.422 398.281C149.422 402.214 148.429 405.067 146.444 406.839C144.518 408.576 141.774 409.196 138.213 408.699C134.652 408.202 130.478 406.633 125.692 403.993ZM125.692 394.493C128.669 396.135 131.004 396.656 132.697 396.056C134.448 395.489 135.324 393.872 135.324 391.205C135.324 388.405 134.419 385.739 132.609 383.208C130.858 380.709 128.552 378.67 125.692 377.093C122.889 375.547 120.613 375.058 118.862 375.626C117.11 376.193 116.235 377.877 116.235 380.677C116.235 383.343 117.081 385.91 118.774 388.377C120.467 390.844 122.773 392.883 125.692 394.493Z" fill="white"/>
</g>
<g id="MB" filter="url(#filter1_d_154_48)">
<path d="M299.987 473.017V403.017L311.72 396.545L337.814 431.553L331.597 434.982L357.254 371.432L368.9 365.008L369.075 434.912L355.765 442.253L355.678 395.601L358.129 394.249L337.639 444.85L331.247 448.375L310.319 420.618L313.296 418.976V465.676L299.987 473.017ZM383.618 426.891V356.891L413.565 340.374C421.27 336.124 427.05 334.603 430.902 335.811C434.814 336.987 436.769 340.309 436.769 345.776C436.769 349.442 435.981 353.077 434.405 356.68C432.829 360.216 430.669 363.473 427.925 366.453C425.182 369.433 422.029 371.905 418.468 373.869L420.132 368.852C423.985 366.727 427.4 365.577 430.377 365.401C433.354 365.159 435.66 365.987 437.295 367.886C438.988 369.752 439.834 372.719 439.834 376.785C439.834 382.785 437.762 388.628 433.617 394.314C429.472 399.934 423.372 404.965 415.316 409.408L383.618 426.891ZM397.715 406.915L414.265 397.787C417.943 395.759 420.716 393.563 422.584 391.199C424.51 388.737 425.473 386.006 425.473 383.006C425.473 380.072 424.51 378.437 422.584 378.099C420.716 377.663 417.943 378.459 414.265 380.487L396.665 390.195V378.395L411.813 370.04C415.258 368.14 417.884 366.025 419.694 363.693C421.562 361.263 422.496 358.648 422.496 355.848C422.496 353.114 421.562 351.596 419.694 351.293C417.884 350.891 415.258 351.64 411.813 353.54L397.715 361.315V406.915Z" fill="white"/>
</g>
<g id="â¿" style="mix-blend-mode:screen" filter="url(#filter2_i_154_48)">
<path d="M333.273 78.7216L371.145 57.8338L385.812 65.9233L347.941 86.8111L333.273 78.7216ZM304.158 62.6634L342.03 41.7756L356.697 49.8651L318.825 70.7529L304.158 62.6634ZM171.279 168.068L209.151 147.18L223.818 155.27L185.946 176.158L171.279 168.068ZM142.164 152.01L180.036 131.122L194.703 139.212L156.831 160.099L142.164 152.01ZM141.069 127.742L297.372 41.5341L335.025 62.3012C347.576 69.2235 356.697 75.7032 362.389 81.7401C368.372 87.777 370.561 93.5725 368.956 99.1265C367.643 104.68 362.097 110.154 352.319 115.547C346.481 118.767 340.425 121.302 334.149 123.153C327.874 125.005 321.817 126.011 315.979 126.172C310.142 126.333 304.815 125.568 299.999 123.878L298.904 124.482C302.115 127.379 304.085 130.478 304.815 133.778C305.545 137.079 304.45 140.661 301.531 144.524C298.612 148.388 293.067 152.573 284.894 157.081C275.408 162.313 265.192 165.694 254.246 167.223C243.447 168.672 232.355 168.269 220.972 166.016C209.88 163.762 199.081 159.737 188.573 153.942L141.069 127.742ZM276.794 98.5228C284.091 102.547 290.659 104.479 296.496 104.318C302.334 104.157 308.172 102.467 314.009 99.2472C319.993 95.947 322.62 92.6468 321.89 89.3466C321.16 86.0464 317.147 82.384 309.85 78.3594L303.283 74.7372L268.476 93.9347L276.794 98.5228ZM242.206 108.423L201.489 130.881L212.215 136.797C219.804 140.983 226.956 142.834 233.669 142.351C240.674 141.868 247.387 139.856 253.809 136.314C257.749 134.141 260.522 131.887 262.127 129.553C263.733 127.218 263.733 124.723 262.127 122.067C260.668 119.491 257.238 116.714 251.838 113.736L242.206 108.423Z" fill="white"/>
</g>
<g id="Rectangle 141" style="mix-blend-mode:screen">
<path d="M235.789 125.408L443 62L402.595 224.522L252.868 305.873L235.789 125.408Z" fill="url(#paint7_linear_154_48)"/>
</g>
</g>
<defs>
<filter id="filter0_d_154_48" x="95.9453" y="350.994" width="59.6641" height="108.895" filterUnits="userSpaceOnUse" color-interpolation-filters="sRGB">
<feFlood flood-opacity="0" result="BackgroundImageFix"/>
<feColorMatrix in="SourceAlpha" type="matrix" values="0 0 0 0 0 0 0 0 0 0 0 0 0 0 0 0 0 0 127 0" result="hardAlpha"/>
<feOffset dy="4"/>
<feGaussianBlur stdDeviation="2"/>
<feComposite in2="hardAlpha" operator="out"/>
<feColorMatrix type="matrix" values="0 0 0 0 0 0 0 0 0 0 0 0 0 0 0 0 0 0 0.25 0"/>
<feBlend mode="normal" in2="BackgroundImageFix" result="effect1_dropShadow_154_48"/>
<feBlend mode="normal" in="SourceGraphic" in2="effect1_dropShadow_154_48" result="shape"/>
</filter>
<filter id="filter1_d_154_48" x="295.984" y="325.885" width="147.852" height="155.132" filterUnits="userSpaceOnUse" color-interpolation-filters="sRGB">
<feFlood flood-opacity="0" result="BackgroundImageFix"/>
<feColorMatrix in="SourceAlpha" type="matrix" values="0 0 0 0 0 0 0 0 0 0 0 0 0 0 0 0 0 0 127 0" result="hardAlpha"/>
<feOffset dy="4"/>
<feGaussianBlur stdDeviation="2"/>
<feComposite in2="hardAlpha" operator="out"/>
<feColorMatrix type="matrix" values="0 0 0 0 0 0 0 0 0 0 0 0 0 0 0 0 0 0 0.25 0"/>
<feBlend mode="normal" in2="BackgroundImageFix" result="effect1_dropShadow_154_48"/>
<feBlend mode="normal" in="SourceGraphic" in2="effect1_dropShadow_154_48" result="shape"/>
</filter>
<filter id="filter2_i_154_48" x="119.617" y="29.3394" width="298.375" height="168.567" filterUnits="userSpaceOnUse" color-interpolation-filters="sRGB">
<feFlood flood-opacity="0" result="BackgroundImageFix"/>
<feBlend mode="normal" in="SourceGraphic" in2="BackgroundImageFix" result="shape"/>
<feColorMatrix in="SourceAlpha" type="matrix" values="0 0 0 0 0 0 0 0 0 0 0 0 0 0 0 0 0 0 127 0" result="hardAlpha"/>
<feOffset dy="4"/>
<feGaussianBlur stdDeviation="2"/>
<feComposite in2="hardAlpha" operator="arithmetic" k2="-1" k3="1"/>
<feColorMatrix type="matrix" values="0 0 0 0 0 0 0 0 0 0 0 0 0 0 0 0 0 0 0.25 0"/>
<feBlend mode="normal" in2="shape" result="effect1_innerShadow_154_48"/>
</filter>
<linearGradient id="paint0_linear_154_48" x1="115.093" y1="0" x2="115.093" y2="230.186" gradientUnits="userSpaceOnUse">
<stop stop-color="#13EDB1"/>
<stop offset="1" stop-color="#13B3D3"/>
</linearGradient>
<linearGradient id="paint1_linear_154_48" x1="115.093" y1="0" x2="115.093" y2="207.343" gradientUnits="userSpaceOnUse">
<stop stop-color="#13EDB1"/>
<stop offset="1" stop-color="#13B3D3"/>
</linearGradient>
<linearGradient id="paint2_linear_154_48" x1="115.093" y1="0" x2="115.093" y2="207.343" gradientUnits="userSpaceOnUse">
<stop stop-color="#13EDB1"/>
<stop offset="1" stop-color="#13B3D3"/>
</linearGradient>
<linearGradient id="paint3_linear_154_48" x1="237.448" y1="113.759" x2="180.682" y2="259.262" gradientUnits="userSpaceOnUse">
<stop offset="0.147966" stop-color="#93E0CB" stop-opacity="0"/>
<stop offset="0.693354" stop-color="#7FE2C7" stop-opacity="0.156976"/>
<stop offset="1" stop-color="#13EDB1" stop-opacity="0.76"/>
</linearGradient>
<linearGradient id="paint4_linear_154_48" x1="140.504" y1="0" x2="140.504" y2="281.008" gradientUnits="userSpaceOnUse">
<stop stop-color="#13EDB1" stop-opacity="0.32"/>
<stop offset="1" stop-color="#13B3D3" stop-opacity="0.51"/>
</linearGradient>
<linearGradient id="paint5_linear_154_48" x1="140.504" y1="0" x2="140.504" y2="252.453" gradientUnits="userSpaceOnUse">
<stop stop-color="#13EDB1" stop-opacity="0.54"/>
<stop offset="1" stop-color="#13B3D3" stop-opacity="0.54"/>
</linearGradient>
<linearGradient id="paint6_linear_154_48" x1="140.504" y1="0" x2="140.504" y2="252.453" gradientUnits="userSpaceOnUse">
<stop stop-color="#13EDB1" stop-opacity="0.58"/>
<stop offset="1" stop-color="#13B3D3" stop-opacity="0.7"/>
</linearGradient>
<linearGradient id="paint7_linear_154_48" x1="358.325" y1="78.1774" x2="412.785" y2="244.11" gradientUnits="userSpaceOnUse">
<stop offset="0.147966" stop-color="#93E0CB" stop-opacity="0"/>
<stop offset="0.693354" stop-color="#7FE2C7" stop-opacity="0.156976"/>
<stop offset="1" stop-color="#13EDB1" stop-opacity="0.76"/>
</linearGradient>
</defs>
</svg>
